svgs/solid/weight-hanging.svg

<svg xmlns="http://www.w3.org/2000/svg" viewBox="0 0 512 512"><!-- Font Awesome Pro 6.0.0-alpha2 by @fontawesome - https://fontawesome.com License - https://fontawesome.com/license (Commercial License) --><path d="M510.265 445.875L437.261 153.75C433.51 138.5 420.76 128 406.384 128H346.13C349.755 118 352.006 107.25 352.006 96C352.006 43 309.003 0 256 0S159.994 43 159.994 96C159.994 107.25 162.245 118 165.87 128H105.616C91.24 128 78.49 138.5 74.739 153.75L1.735 445.875C-6.64 479.125 16.361 512 47.988 512H464.012C495.639 512 518.64 479.125 510.265 445.875ZM256 128C238.374 128 223.998 113.625 223.998 96S238.374 64 256 64C273.626 64 288.002 78.375 288.002 96S273.626 128 256 128Z"/></svg>

<svg xmlns="http://www.w3.org/2000/svg" viewBox="0 0 512 512"><!-- Font Awesome Pro 5.15.1 by @fontawesome - https://fontawesome.com License - https://fontawesome.com/license (Commercial License) --><path d="M510.28 445.86l-73.03-292.13c-3.8-15.19-16.44-25.72-30.87-25.72h-60.25c3.57-10.05 5.88-20.72 5.88-32 0-53.02-42.98-96-96-96s-96 42.98-96 96c0 11.28 2.3 21.95 5.88 32h-60.25c-14.43 0-27.08 10.54-30.87 25.72L1.72 445.86C-6.61 479.17 16.38 512 48.03 512h415.95c31.64 0 54.63-32.83 46.3-66.14zM256 128c-17.64 0-32-14.36-32-32s14.36-32 32-32 32 14.36 32 32-14.36 32-32 32z"/></svg>
